X: 3439
M: 2/4
L: 1/8
K: D
|:\
|:\
d'b b/a/b | af f/e/f | ge e/d/e | fd d/c/d |\
d'b b/a/b | af f/e/f | ge e/d/e | dfdz :|


